Disign/img/mail2.svg

<!-- Generated by IcoMoon.io -->
<svg version="1.1" xmlns="http://www.w3.org/2000/svg" width="16" height="16" viewBox="0 0 16 16">
<title>mail2</title>
<path d="M13.333 0h-10.666c-1.467 0-2.667 1.2-2.667 2.667v10.666c0 1.468 1.2 2.667 2.667 2.667h10.666c1.467 0 2.667-1.199 2.667-2.667v-10.666c0-1.467-1.2-2.667-2.667-2.667zM13.333 2c0.125 0 0.243 0.036 0.344 0.099l-5.678 4.694-5.677-4.694c0.101-0.063 0.219-0.099 0.344-0.099h10.666zM2.667 14c-0.030 0-0.060-0.002-0.089-0.006l3.525-4.89-0.457-0.457-3.646 3.646v-9.549l6 7.256 6-7.256v9.549l-3.646-3.646-0.457 0.457 3.525 4.89c-0.029 0.004-0.059 0.006-0.088 0.006h-10.666z"></path>
</svg>

<svg xmlns="http://www.w3.org/2000/svg" width="16" height="16"><path d="M13.333 0H2.667A2.675 2.675 0 000 2.667v10.666C0 14.801 1.2 16 2.667 16h10.666A2.674 2.674 0 0016 13.333V2.667C16 1.2 14.8 0 13.333 0zm0 2c.125 0 .243.036.344.099L7.999 6.793 2.322 2.099A.648.648 0 012.666 2h10.666zM2.667 14a.654.654 0 01-.089-.006l3.525-4.89-.457-.457L2 12.293V2.744L8 10l6-7.256v9.549l-3.646-3.646-.457.457 3.525 4.89a.65.65 0 01-.088.006H2.668z"/></svg>
